Images/Logo.svg

<?xml version="1.0" encoding="UTF-8" standalone="no"?>
<svg
   width="1920"
   zoomAndPan="magnify"
   viewBox="0 0 1440 809.99999"
   height="1080"
   preserveAspectRatio="xMidYMid"
   version="1.0"
   id="svg30"
   sodipodi:docname="Logo.svg"
   inkscape:version="1.3 (0e150ed6c4, 2023-07-21)"
   xmlns:inkscape="http://www.inkscape.org/namespaces/inkscape"
   xmlns:sodipodi="http://sodipodi.sourceforge.net/DTD/sodipodi-0.dtd"
   xmlns="http://www.w3.org/2000/svg"
   xmlns:svg="http://www.w3.org/2000/svg">
  <sodipodi:namedview
     id="namedview30"
     pagecolor="#ffffff"
     bordercolor="#000000"
     borderopacity="0.25"
     inkscape:showpageshadow="2"
     inkscape:pageopacity="0.0"
     inkscape:pagecheckerboard="0"
     inkscape:deskcolor="#d1d1d1"
     showgrid="false"
     inkscape:zoom="0.36536458"
     inkscape:cx="922.36637"
     inkscape:cy="543.29295"
     inkscape:window-width="1920"
     inkscape:window-height="1009"
     inkscape:window-x="-8"
     inkscape:window-y="-8"
     inkscape:window-maximized="1"
     inkscape:current-layer="svg30" />
  <defs
     id="defs3">
    <clipPath
       id="40ea0d974b">
      <path
         d="M 187,342 H 318.91406 V 469.23437 H 187 Z m 0,0"
         clip-rule="nonzero"
         id="path1" />
    </clipPath>
    <clipPath
       id="e460a29820">
      <path
         d="M 100.11328,284 H 230 V 395 H 100.11328 Z m 0,0"
         clip-rule="nonzero"
         id="path2" />
    </clipPath>
    <clipPath
       id="9c72a6dcb3">
      <path
         d="M 194,282.44141 H 315 V 409 H 194 Z m 0,0"
         clip-rule="nonzero"
         id="path3" />
    </clipPath>
  </defs>
  <g
     clip-path="url(#40ea0d974b)"
     id="g4">
    <path
       fill="#1d532f"
       d="m 318.78125,430.30469 v 26.85156 H 218.10547 v -59.60938 c -2.53516,2.9336 -4.98438,5.81641 -7.30469,8.79297 -13.07422,16.66016 -22.25781,35.07422 -17.75391,62.97657 -13.64453,-31.3125 0.74219,-53.70704 20.20313,-75.22266 1.57422,-1.75 3.19531,-3.5 4.85547,-5.25 10.89062,-11.58984 22.78515,-23.17578 32.01562,-35.94922 0.30469,-0.4375 0.60938,-0.82812 0.91797,-1.26562 1.96875,-2.84375 3.80469,-5.73047 5.50781,-8.75 -1.83593,4.94531 -3.97656,9.53515 -6.42578,13.86718 v 13.03125 h 56.8086 v 26.24219 h -56.85547 v 34.24219 h 68.70703 z m 0,0"
       fill-opacity="1"
       fill-rule="nonzero"
       id="path4" />
  </g>
  <g
     clip-path="url(#e460a29820)"
     id="g5">
    <path
       fill="#1d532f"
       d="m 100.11328,359.58594 c 43.99609,-1.87891 82.4375,-37.08594 103.91016,10.93359 -24.22657,-7.78516 -46.66407,-7.73828 -68.26953,-4.02344 35.03125,-0.30468 59.82812,2.58203 66.78125,11.10938 -31.05079,34.50781 -66.60547,10.27734 -102.42188,-18.01953 z m 108.98438,1.53125 c -6.47266,-22.69922 0.96093,-38.48438 -0.043,-53.83594 3.71484,17.80078 -4.15625,40.14844 5.28906,55.36719 1.35547,-1.00391 2.625,-2.01172 3.76172,-3.0625 13.38281,-12.11328 13.73437,-27.42188 6.82422,-44.47657 -3.89453,-9.62109 -10.0586,-19.8125 -17.4961,-30.30859 -4.15234,39.84375 -28.16406,54.49219 1.66407,76.31641 z m 0,0"
       fill-opacity="1"
       fill-rule="nonzero"
       id="path5" />
  </g>
  <g
     clip-path="url(#9c72a6dcb3)"
     id="g6">
    <path
       fill="#1d532f"
       d="m 258.86719,300.80859 c 0.30468,-5.64062 0.043,-11.76562 -1.05078,-18.36718 2.71093,6.2539 4.32812,12.15625 4.98437,17.71093 0.61328,5.20313 0.4375,10.14453 -0.39062,14.8711 h 51.60546 v 26.89453 h -63.58984 c -0.0859,0.17578 -0.21875,0.30859 -0.35156,0.48047 -8.7461,12.3789 -20.72656,23.8789 -32.01172,35.94922 -0.69922,0.74609 -1.35547,1.44531 -2.05469,2.1875 -8.22265,8.92187 -16.00781,18.19531 -21.6914,28.29687 5.55078,-15 14.38671,-26.98437 23.74609,-37.91797 0.043,-0.043 0.043,-0.0859 0.0859,-0.13281 15.35156,-17.97266 32.05859,-33.45313 38.3125,-55.75781 1.26953,-4.41797 2.09765,-9.14063 2.40625,-14.21485 z m 0,0"
       fill-opacity="1"
       fill-rule="nonzero"
       id="path6" />
  </g>
  <g
     fill="#1d532f"
     fill-opacity="1"
     id="g9">
    <g
       transform="translate(323.87887,455.98727)"
       id="g8">
      <g
         id="g7">
        <path
           d="m 81.550781,-24.320312 c -24.324219,0 -43.945312,-17.78125 -43.945312,-46.601563 0,-26.980469 16.558593,-48.031255 43.945312,-48.031255 12.058594,0 23.093749,5.10938 31.269529,13.08204 0.81641,0.61328 2.04297,0.61328 2.86328,0 l 16.14453,-16.14844 c 0.82032,-0.61328 0.82032,-1.83985 0,-2.45313 -12.67187,-12.875 -30.45312,-20.64062 -50.277339,-20.64062 -41.898437,0 -71.535156,31.47656 -71.535156,74.191405 0,44.554687 32.292969,72.964844 71.535156,72.964844 19.824219,0 37.605469,-7.96875 50.277339,-20.640625 0.82032,-0.613282 0.82032,-1.839844 0,-2.453125 l -16.14453,-16.351563 c -0.82031,-0.613281 -2.04687,-0.613281 -2.86328,0 -8.17578,8.175782 -19.210935,13.082032 -31.269529,13.082032 z m 0,0"
           id="path7" />
      </g>
    </g>
  </g>
  <g
     fill="#1d532f"
     fill-opacity="1"
     id="g12">
    <g
       transform="translate(465.71469,455.98727)"
       id="g11">
      <g
         id="g10">
        <path
           d="m 80.324219,-145.11328 c -47.621094,0 -70.921875,36.78906 -70.921875,73.374999 0,36.582031 23.300781,73.578125 70.921875,73.578125 46.804691,0 70.511721,-36.996094 70.511721,-73.578125 0,-36.585939 -23.70703,-73.374999 -70.511721,-73.374999 z m 0,121.199218 c -28.820313,0 -43.125,-23.707032 -43.125,-47.417969 0,-23.910157 14.304687,-47.824219 43.125,-47.824219 28.410161,0 42.921871,23.914062 42.921871,47.824219 0,23.710937 -14.51171,47.417969 -42.921871,47.417969 z m 0,0"
           id="path9" />
      </g>
    </g>
  </g>
  <g
     fill="#1d532f"
     fill-opacity="1"
     id="g15">
    <g
       transform="translate(628.6011,455.98727)"
       id="g14">
      <g
         id="g13">
        <path
           d="m 41.898438,-117.11328 h 66.015622 c 1.22657,0 2.04688,-0.81641 2.04688,-1.63672 v -22.68359 c 0,-0.82032 -0.82031,-1.63672 -2.04688,-1.63672 H 16.554688 c -1.226563,0 -2.042969,0.8164 -2.042969,1.63672 V -1.636719 C 14.511719,-0.816406 15.328125,0 16.554688,0 h 93.199222 c 1.22656,0 2.04687,-0.816406 2.04687,-1.636719 v -23.296875 c 0,-0.820312 -0.82031,-1.636718 -2.04687,-1.636718 H 41.898438 v -32.292969 h 56.207031 c 1.023437,0 1.839843,-0.816407 1.839843,-1.636719 v -22.683594 c 0,-0.820312 -0.816406,-1.636718 -1.839843,-1.636718 H 41.898438 Z m 0,0"
           id="path12" />
      </g>
    </g>
  </g>
  <g
     fill="#1d532f"
     fill-opacity="1"
     id="g18">
    <g
       transform="translate(748.77326,455.98727)"
       id="g17">
      <g
         id="g16">
        <path
           d="m 54.980469,2.042969 c 23.300781,0 45.167971,-14.917969 45.167971,-42.511719 0,-16.757812 -8.378909,-31.476562 -23.914065,-38.628906 C 66.015625,-83.796875 56,-83.796875 54.980469,-83.796875 c -9.402344,0 -18.191407,-6.746094 -18.191407,-17.167965 0,-12.0625 8.175782,-17.78516 18.191407,-17.78516 9.402343,0 17.371093,4.90625 17.78125,15.125 0,0.82031 1.023437,1.63672 2.042969,1.63672 h 22.890624 c 1.226563,0 2.046876,-0.81641 2.046876,-1.63672 -0.410157,-24.52344 -19.828126,-41.28516 -44.761719,-41.28516 -23.503907,0 -45.375,16.55469 -45.375,43.94532 0,16.960934 8.585937,30.859371 23.710937,38.015621 10.421875,4.699219 20.4375,4.699219 21.664063,4.699219 8.175781,0.410156 18.191406,7.152344 18.191406,17.78125 0,10.015625 -8.585937,16.148438 -18.191406,16.148438 -9.402344,0 -17.78125,-5.109376 -18.191407,-15.738282 0,-0.820312 -1.023437,-1.433594 -2.042968,-1.433594 H 11.648438 c -1.226563,0 -2.042969,0.613282 -2.042969,1.433594 0.410156,26.976563 20.234375,41.488282 45.375,42.101563 z m 0,0"
           id="path15" />
      </g>
    </g>
  </g>
  <g
     fill="#1d532f"
     fill-opacity="1"
     id="g21">
    <g
       transform="translate(859.74857,455.98727)"
       id="g20">
      <g
         id="g19">
        <path
           d="m 87.886719,-118.95313 v -21.2539 c 0,-0.82031 -0.816407,-1.63672 -2.042969,-1.63672 H 4.699219 c -1.226563,0 -2.042969,0.81641 -2.042969,1.63672 v 21.2539 c 0,0.81641 0.816406,1.42969 2.042969,1.42969 H 31.882812 V -1.636719 C 31.882812,-0.816406 32.496094,0 33.722656,0 h 23.097656 c 1.226563,0 1.839844,-0.816406 1.839844,-1.636719 V -117.52344 H 85.84375 c 1.226562,0 2.042969,-0.61328 2.042969,-1.42969 z m 0,0"
           id="path18" />
      </g>
    </g>
  </g>
  <g
     fill="#1d532f"
     fill-opacity="1"
     id="g24">
    <g
       transform="translate(951.3083,455.98727)"
       id="g23">
      <g
         id="g22">
        <path
           d="m 81.34375,-16.148438 5.929688,15.125 C 87.476562,-0.410156 88.292969,0 88.90625,0 H 114.25 c 1.43359,0 2.25,-1.023438 1.63672,-2.25 L 60.089844,-146.13672 c -0.613282,-1.42969 -3.066406,-1.42969 -3.679688,0 L 0.613281,-2.25 C 0,-1.023438 0.816406,0 2.453125,0 H 27.59375 c 0.816406,0 1.632812,-0.410156 1.835938,-1.023438 l 5.519531,-15.125 z M 43.738281,-40.265625 58.25,-83.183594 72.558594,-40.265625 Z m 0,0"
           id="path21" />
      </g>
    </g>
  </g>
  <g
     fill="#1d532f"
     fill-opacity="1"
     id="g27">
    <g
       transform="translate(1068.0061,455.98727)"
       id="g26">
      <g
         id="g25">
        <path
           d="m 87.886719,-118.95313 v -21.2539 c 0,-0.82031 -0.816407,-1.63672 -2.042969,-1.63672 H 4.699219 c -1.226563,0 -2.042969,0.81641 -2.042969,1.63672 v 21.2539 c 0,0.81641 0.816406,1.42969 2.042969,1.42969 H 31.882812 V -1.636719 C 31.882812,-0.816406 32.496094,0 33.722656,0 h 23.097656 c 1.226563,0 1.839844,-0.816406 1.839844,-1.636719 V -117.52344 H 85.84375 c 1.226562,0 2.042969,-0.61328 2.042969,-1.42969 z m 0,0"
           id="path24" />
      </g>
    </g>
  </g>
  <g
     fill="#1d532f"
     fill-opacity="1"
     id="g30">
    <g
       transform="translate(1159.5658,455.98727)"
       id="g29">
      <g
         id="g28">
        <path
           d="m 41.695312,-117.11328 h 67.445318 c 1.22656,0 2.04687,-0.81641 2.04687,-1.63672 v -22.68359 c 0,-0.82032 -0.82031,-1.63672 -2.04687,-1.63672 H 16.554688 c -1.019532,0 -1.839844,0.8164 -1.839844,1.63672 V -1.636719 C 14.714844,-0.816406 15.535156,0 16.554688,0 h 92.585942 c 1.22656,0 2.04687,-0.816406 2.04687,-1.636719 v -22.480469 c 0,-0.816406 -0.82031,-1.636718 -2.04687,-1.636718 H 41.695312 v -32.699219 h 55.796876 c 1.226562,0 1.839843,-0.820313 1.839843,-1.636719 v -22.277344 c 0,-0.816406 -0.613281,-1.636718 -1.839843,-1.636718 H 41.695312 Z m 0,0"
           id="path27" />
      </g>
    </g>
  </g>
</svg>

<?xml version="1.0" encoding="UTF-8" standalone="no"?>
<svg
   width="1920"
   zoomAndPan="magnify"
   viewBox="0 0 1440 809.999993"
   height="1080"
   preserveAspectRatio="xMidYMid meet"
   version="1.0"
   id="svg30"
   sodipodi:docname="Logo.svg"
   inkscape:version="1.3 (0e150ed6c4, 2023-07-21)"
   xmlns:inkscape="http://www.inkscape.org/namespaces/inkscape"
   xmlns:sodipodi="http://sodipodi.sourceforge.net/DTD/sodipodi-0.dtd"
   xmlns="http://www.w3.org/2000/svg"
   xmlns:svg="http://www.w3.org/2000/svg">
  <sodipodi:namedview
     id="namedview30"
     pagecolor="#ffffff"
     bordercolor="#000000"
     borderopacity="0.25"
     inkscape:showpageshadow="2"
     inkscape:pageopacity="0.0"
     inkscape:pagecheckerboard="0"
     inkscape:deskcolor="#d1d1d1"
     showgrid="false"
     inkscape:zoom="0.36536458"
     inkscape:cx="920.99786"
     inkscape:cy="543.29294"
     inkscape:window-width="1920"
     inkscape:window-height="1009"
     inkscape:window-x="-8"
     inkscape:window-y="-8"
     inkscape:window-maximized="1"
     inkscape:current-layer="svg30" />
  <defs
     id="defs3">
    <g
       id="g1" />
    <clipPath
       id="40ea0d974b">
      <path
         d="M 187 342 L 318.914062 342 L 318.914062 469.234375 L 187 469.234375 Z M 187 342 "
         clip-rule="nonzero"
         id="path1" />
    </clipPath>
    <clipPath
       id="e460a29820">
      <path
         d="M 100.113281 284 L 230 284 L 230 395 L 100.113281 395 Z M 100.113281 284 "
         clip-rule="nonzero"
         id="path2" />
    </clipPath>
    <clipPath
       id="9c72a6dcb3">
      <path
         d="M 194 282.441406 L 315 282.441406 L 315 409 L 194 409 Z M 194 282.441406 "
         clip-rule="nonzero"
         id="path3" />
    </clipPath>
  </defs>
  <g
     clip-path="url(#40ea0d974b)"
     id="g4">
    <path
       fill="#1d532f"
       d="M 318.78125 430.304688 L 318.78125 457.15625 L 218.105469 457.15625 L 218.105469 397.546875 C 215.570312 400.480469 213.121094 403.363281 210.800781 406.339844 C 197.726562 423 188.542969 441.414062 193.046875 469.316406 C 179.402344 438.003906 193.789062 415.609375 213.25 394.09375 C 214.824219 392.34375 216.445312 390.59375 218.105469 388.84375 C 228.996094 377.253906 240.890625 365.667969 250.121094 352.894531 C 250.425781 352.457031 250.730469 352.066406 251.039062 351.628906 C 253.007812 348.785156 254.84375 345.898438 256.546875 342.878906 C 254.710938 347.824219 252.570312 352.414062 250.121094 356.746094 L 250.121094 369.777344 L 306.929688 369.777344 L 306.929688 396.019531 L 250.074219 396.019531 L 250.074219 430.261719 L 318.78125 430.261719 Z M 318.78125 430.304688 "
       fill-opacity="1"
       fill-rule="nonzero"
       id="path4" />
  </g>
  <g
     clip-path="url(#e460a29820)"
     id="g5">
    <path
       fill="#1d532f"
       d="M 100.113281 359.585938 C 144.109375 357.707031 182.550781 322.5 204.023438 370.519531 C 179.796875 362.734375 157.359375 362.78125 135.753906 366.496094 C 170.785156 366.191406 195.582031 369.078125 202.535156 377.605469 C 171.484375 412.113281 135.929688 387.882812 100.113281 359.585938 Z M 209.097656 361.117188 C 202.625 338.417969 210.058594 322.632812 209.054688 307.28125 C 212.769531 325.082031 204.898438 347.429688 214.34375 362.648438 C 215.699219 361.644531 216.96875 360.636719 218.105469 359.585938 C 231.488281 347.472656 231.839844 332.164062 224.929688 315.109375 C 221.035156 305.488281 214.871094 295.296875 207.433594 284.800781 C 203.28125 324.644531 179.269531 339.292969 209.097656 361.117188 Z M 209.097656 361.117188 "
       fill-opacity="1"
       fill-rule="nonzero"
       id="path5" />
  </g>
  <g
     clip-path="url(#9c72a6dcb3)"
     id="g6">
    <path
       fill="#1d532f"
       d="M 258.867188 300.808594 C 259.171875 295.167969 258.910156 289.042969 257.816406 282.441406 C 260.527344 288.695312 262.144531 294.597656 262.800781 300.152344 C 263.414062 305.355469 263.238281 310.296875 262.410156 315.023438 L 314.015625 315.023438 L 314.015625 341.917969 L 250.425781 341.917969 C 250.339844 342.09375 250.207031 342.226562 250.074219 342.398438 C 241.328125 354.777344 229.347656 366.277344 218.0625 378.347656 C 217.363281 379.09375 216.707031 379.792969 216.007812 380.535156 C 207.785156 389.457031 200 398.730469 194.316406 408.832031 C 199.867188 393.832031 208.703125 381.847656 218.0625 370.914062 C 218.105469 370.871094 218.105469 370.828125 218.148438 370.78125 C 233.5 352.808594 250.207031 337.328125 256.460938 315.023438 C 257.730469 310.605469 258.558594 305.882812 258.867188 300.808594 Z M 258.867188 300.808594 "
       fill-opacity="1"
       fill-rule="nonzero"
       id="path6" />
  </g>
  <g
     fill="#1d532f"
     fill-opacity="1"
     id="g9">
    <g
       transform="translate(323.878866, 455.987273)"
       id="g8">
      <g
         id="g7">
        <path
           d="M 81.550781 -24.320312 C 57.226562 -24.320312 37.605469 -42.101562 37.605469 -70.921875 C 37.605469 -97.902344 54.164062 -118.953125 81.550781 -118.953125 C 93.609375 -118.953125 104.644531 -113.84375 112.820312 -105.871094 C 113.636719 -105.257812 114.863281 -105.257812 115.683594 -105.871094 L 131.828125 -122.019531 C 132.648438 -122.632812 132.648438 -123.859375 131.828125 -124.472656 C 119.15625 -137.347656 101.375 -145.113281 81.550781 -145.113281 C 39.652344 -145.113281 10.015625 -113.636719 10.015625 -70.921875 C 10.015625 -26.367188 42.308594 2.042969 81.550781 2.042969 C 101.375 2.042969 119.15625 -5.925781 131.828125 -18.597656 C 132.648438 -19.210938 132.648438 -20.4375 131.828125 -21.050781 L 115.683594 -37.402344 C 114.863281 -38.015625 113.636719 -38.015625 112.820312 -37.402344 C 104.644531 -29.226562 93.609375 -24.320312 81.550781 -24.320312 Z M 81.550781 -24.320312 "
           id="path7" />
      </g>
    </g>
  </g>
  <g
     fill="#1d532f"
     fill-opacity="1"
     id="g12">
    <g
       transform="translate(465.714691, 455.987273)"
       id="g11">
      <g
         id="g10">
        <path
           d="M 80.324219 -145.113281 C 32.703125 -145.113281 9.402344 -108.324219 9.402344 -71.738281 C 9.402344 -35.15625 32.703125 1.839844 80.324219 1.839844 C 127.128906 1.839844 150.835938 -35.15625 150.835938 -71.738281 C 150.835938 -108.324219 127.128906 -145.113281 80.324219 -145.113281 Z M 80.324219 -23.914062 C 51.503906 -23.914062 37.199219 -47.621094 37.199219 -71.332031 C 37.199219 -95.242188 51.503906 -119.15625 80.324219 -119.15625 C 108.734375 -119.15625 123.246094 -95.242188 123.246094 -71.332031 C 123.246094 -47.621094 108.734375 -23.914062 80.324219 -23.914062 Z M 80.324219 -23.914062 "
           id="path9" />
      </g>
    </g>
  </g>
  <g
     fill="#1d532f"
     fill-opacity="1"
     id="g15">
    <g
       transform="translate(628.601102, 455.987273)"
       id="g14">
      <g
         id="g13">
        <path
           d="M 41.898438 -117.113281 L 107.914062 -117.113281 C 109.140625 -117.113281 109.960938 -117.929688 109.960938 -118.75 L 109.960938 -141.433594 C 109.960938 -142.253906 109.140625 -143.070312 107.914062 -143.070312 L 16.554688 -143.070312 C 15.328125 -143.070312 14.511719 -142.253906 14.511719 -141.433594 L 14.511719 -1.636719 C 14.511719 -0.816406 15.328125 0 16.554688 0 L 109.753906 0 C 110.980469 0 111.800781 -0.816406 111.800781 -1.636719 L 111.800781 -24.933594 C 111.800781 -25.753906 110.980469 -26.570312 109.753906 -26.570312 L 41.898438 -26.570312 L 41.898438 -58.863281 L 98.105469 -58.863281 C 99.128906 -58.863281 99.945312 -59.679688 99.945312 -60.5 L 99.945312 -83.183594 C 99.945312 -84.003906 99.128906 -84.820312 98.105469 -84.820312 L 41.898438 -84.820312 Z M 41.898438 -117.113281 "
           id="path12" />
      </g>
    </g>
  </g>
  <g
     fill="#1d532f"
     fill-opacity="1"
     id="g18">
    <g
       transform="translate(748.773262, 455.987273)"
       id="g17">
      <g
         id="g16">
        <path
           d="M 54.980469 2.042969 C 78.28125 2.042969 100.148438 -12.875 100.148438 -40.46875 C 100.148438 -57.226562 91.769531 -71.945312 76.234375 -79.097656 C 66.015625 -83.796875 56 -83.796875 54.980469 -83.796875 C 45.578125 -83.796875 36.789062 -90.542969 36.789062 -100.964844 C 36.789062 -113.027344 44.964844 -118.75 54.980469 -118.75 C 64.382812 -118.75 72.351562 -113.84375 72.761719 -103.625 C 72.761719 -102.804688 73.785156 -101.988281 74.804688 -101.988281 L 97.695312 -101.988281 C 98.921875 -101.988281 99.742188 -102.804688 99.742188 -103.625 C 99.332031 -128.148438 79.914062 -144.910156 54.980469 -144.910156 C 31.476562 -144.910156 9.605469 -128.355469 9.605469 -100.964844 C 9.605469 -84.003906 18.191406 -70.105469 33.316406 -62.949219 C 43.738281 -58.25 53.753906 -58.25 54.980469 -58.25 C 63.15625 -57.839844 73.171875 -51.097656 73.171875 -40.46875 C 73.171875 -30.453125 64.585938 -24.320312 54.980469 -24.320312 C 45.578125 -24.320312 37.199219 -29.429688 36.789062 -40.058594 C 36.789062 -40.878906 35.765625 -41.492188 34.746094 -41.492188 L 11.648438 -41.492188 C 10.421875 -41.492188 9.605469 -40.878906 9.605469 -40.058594 C 10.015625 -13.082031 29.839844 1.429688 54.980469 2.042969 Z M 54.980469 2.042969 "
           id="path15" />
      </g>
    </g>
  </g>
  <g
     fill="#1d532f"
     fill-opacity="1"
     id="g21">
    <g
       transform="translate(859.748569, 455.987273)"
       id="g20">
      <g
         id="g19">
        <path
           d="M 87.886719 -118.953125 L 87.886719 -140.207031 C 87.886719 -141.027344 87.070312 -141.84375 85.84375 -141.84375 L 4.699219 -141.84375 C 3.472656 -141.84375 2.65625 -141.027344 2.65625 -140.207031 L 2.65625 -118.953125 C 2.65625 -118.136719 3.472656 -117.523438 4.699219 -117.523438 L 31.882812 -117.523438 L 31.882812 -1.636719 C 31.882812 -0.816406 32.496094 0 33.722656 0 L 56.820312 0 C 58.046875 0 58.660156 -0.816406 58.660156 -1.636719 L 58.660156 -117.523438 L 85.84375 -117.523438 C 87.070312 -117.523438 87.886719 -118.136719 87.886719 -118.953125 Z M 87.886719 -118.953125 "
           id="path18" />
      </g>
    </g>
  </g>
  <g
     fill="#1d532f"
     fill-opacity="1"
     id="g24">
    <g
       transform="translate(951.308302, 455.987273)"
       id="g23">
      <g
         id="g22">
        <path
           d="M 81.34375 -16.148438 L 87.273438 -1.023438 C 87.476562 -0.410156 88.292969 0 88.90625 0 L 114.25 0 C 115.683594 0 116.5 -1.023438 115.886719 -2.25 L 60.089844 -146.136719 C 59.476562 -147.566406 57.023438 -147.566406 56.410156 -146.136719 L 0.613281 -2.25 C 0 -1.023438 0.816406 0 2.453125 0 L 27.59375 0 C 28.410156 0 29.226562 -0.410156 29.429688 -1.023438 L 34.949219 -16.148438 Z M 43.738281 -40.265625 L 58.25 -83.183594 L 72.558594 -40.265625 Z M 43.738281 -40.265625 "
           id="path21" />
      </g>
    </g>
  </g>
  <g
     fill="#1d532f"
     fill-opacity="1"
     id="g27">
    <g
       transform="translate(1068.006064, 455.987273)"
       id="g26">
      <g
         id="g25">
        <path
           d="M 87.886719 -118.953125 L 87.886719 -140.207031 C 87.886719 -141.027344 87.070312 -141.84375 85.84375 -141.84375 L 4.699219 -141.84375 C 3.472656 -141.84375 2.65625 -141.027344 2.65625 -140.207031 L 2.65625 -118.953125 C 2.65625 -118.136719 3.472656 -117.523438 4.699219 -117.523438 L 31.882812 -117.523438 L 31.882812 -1.636719 C 31.882812 -0.816406 32.496094 0 33.722656 0 L 56.820312 0 C 58.046875 0 58.660156 -0.816406 58.660156 -1.636719 L 58.660156 -117.523438 L 85.84375 -117.523438 C 87.070312 -117.523438 87.886719 -118.136719 87.886719 -118.953125 Z M 87.886719 -118.953125 "
           id="path24" />
      </g>
    </g>
  </g>
  <g
     fill="#1d532f"
     fill-opacity="1"
     id="g30">
    <g
       transform="translate(1159.565798, 455.987273)"
       id="g29">
      <g
         id="g28">
        <path
           d="M 41.695312 -117.113281 L 109.140625 -117.113281 C 110.367188 -117.113281 111.1875 -117.929688 111.1875 -118.75 L 111.1875 -141.433594 C 111.1875 -142.253906 110.367188 -143.070312 109.140625 -143.070312 L 16.554688 -143.070312 C 15.535156 -143.070312 14.714844 -142.253906 14.714844 -141.433594 L 14.714844 -1.636719 C 14.714844 -0.816406 15.535156 0 16.554688 0 L 109.140625 0 C 110.367188 0 111.1875 -0.816406 111.1875 -1.636719 L 111.1875 -24.117188 C 111.1875 -24.933594 110.367188 -25.753906 109.140625 -25.753906 L 41.695312 -25.753906 L 41.695312 -58.453125 L 97.492188 -58.453125 C 98.71875 -58.453125 99.332031 -59.273438 99.332031 -60.089844 L 99.332031 -82.367188 C 99.332031 -83.183594 98.71875 -84.003906 97.492188 -84.003906 L 41.695312 -84.003906 Z M 41.695312 -117.113281 "
           id="path27" />
      </g>
    </g>
  </g>
</svg>
